X: 38850
T: Sunday At Ann's
R: waltz
M: 3/4
K: Dmajor
(3dcB|:"Bm" F4 (3 d>cB|"Em"G4 (3d>cB|"A" A3 B/c/ de|"F#m" f2-fe/f/ gb|"Bm" af- fe/f/ (3gfe|
"D" f2- ff fe|1 "G" dB- B1(B/>c/ "A"B)A|"D" d2 -d D (3dcB:|2 "G" dB- B(B/>c/ B)A|"D" d2 -dd/e/ fb||
"Bm" af- (3fef (3gfe|"D" f3 (f/>g/ f)e|"G" dB- B(B/>c/ "A" B)A|"D" D3 D (3dcB||

